svgs/thin/mug-marshmallows.svg

<svg xmlns="http://www.w3.org/2000/svg" viewBox="0 0 512 512"><!--! Font Awesome Pro 6.3.0 by @fontawesome - https://fontawesome.com License - https://fontawesome.com/license (Commercial License) Copyright 2023 Fonticons, Inc. --><path d="M416 160H24C17.63 160 11.5 162.5 7 167S0 177.6 0 184v200C0 437 43 480 96 480h192c53 0 96-42.95 96-95.95V352h32c52.94 0 96-43.06 96-96S468.9 160 416 160zM368 384c0 44.11-35.89 80-80 80H96c-44.11 0-80-35.89-80-80V184c0-5.129 4.172-8 8-8H96v104C96 284.4 99.58 288 104 288S112 284.4 112 280V176H160v72C160 252.4 163.6 256 168 256S176 252.4 176 248V176h192V384zM416 336h-32v-160h32c44.11 0 80 35.89 80 80S460.1 336 416 336zM40 136C44.42 136 48 132.4 48 128V72c0-13.23 10.77-24 24-24h96c6.891 0 13.45 2.969 17.1 8.125c2.922 3.328 7.969 3.641 11.28 .7187C200.6 53.92 200.9 48.88 197.1 45.56C190.4 36.94 179.5 32 168 32h-96C49.94 32 32 49.94 32 72v56.19C32 132.6 35.58 136 40 136zM191.5 130.6c1.469 4.172 5.984 6.328 10.19 4.938C205.8 134.1 208 129.5 206.6 125.4C203.5 116.6 205.7 107.1 212.3 100.5l45.25-45.25c9.375-9.406 24.58-9.375 33.95 0l45.25 45.25c6.562 6.562 8.75 16.09 5.703 24.86C341 129.5 343.2 134.1 347.4 135.6C348.3 135.9 349.1 136 349.1 136c3.313 0 6.407-2.078 7.563-5.375c4.984-14.39 1.25-30.66-9.516-41.42l-45.25-45.25c-15.61-15.62-41-15.59-56.58 0l-45.41 45.36C190 100.1 186.5 116.3 191.5 130.6z"/></svg>

<svg xmlns="http://www.w3.org/2000/svg" viewBox="0 0 512 512"><!-- Font Awesome Pro 6.0.0-alpha2 by @fontawesome - https://fontawesome.com License - https://fontawesome.com/license (Commercial License) --><path d="M416 160H24C17.625 160 11.5 162.5 7 167S0 177.625 0 184V384C0 437 43 480 96 480H288C341 480 384 437 384 384V352H416C468.938 352 512 308.938 512 256S468.938 160 416 160ZM368 384C368 428.111 332.111 464 288 464H96C51.889 464 16 428.111 16 384V184C16 178.871 20.172 176 24 176H96V280C96 284.422 99.578 288 104 288S112 284.422 112 280V176H160V248C160 252.422 163.578 256 168 256S176 252.422 176 248V176H368V384ZM416 336H384V176H416C460.109 176 496 211.891 496 256S460.109 336 416 336ZM40 136C44.422 136 48 132.422 48 128V72C48 58.766 58.766 48 72 48H168C174.891 48 181.453 50.969 186 56.125C188.922 59.453 193.969 59.766 197.281 56.844C200.609 53.922 200.922 48.875 198 45.562C190.422 36.938 179.484 32 168 32H72C49.938 32 32 49.938 32 72V128C32 132.422 35.578 136 40 136ZM191.453 130.625C192.922 134.797 197.438 136.953 201.641 135.562C205.812 134.109 208.016 129.547 206.578 125.375C203.531 116.609 205.719 107.094 212.281 100.516L257.531 55.266C266.906 45.859 282.109 45.891 291.484 55.266L336.734 100.516C343.297 107.078 345.484 116.609 342.438 125.375C341 129.547 343.203 134.109 347.375 135.562C348.25 135.859 349.125 136 350 136C353.312 136 356.406 133.922 357.562 130.625C362.547 116.234 358.812 99.969 348.047 89.203L302.797 43.953C287.187 28.328 261.797 28.359 246.219 43.953L200.969 89.203C190.203 99.984 186.469 116.25 191.453 130.625Z"/></svg>
